X: 8
M:6/8
L:1/8
K:G
|:B/2c/2|ded cAA|dg/2f/2e/2d/2 cAG|G/2F/2DB cAG|(3F/2G/2F/2Dd cAG|
(3d/2d/2d/2cA "tr"fef|"tr"gfe cAG|DGG B>cA|BGG G2:||

